X: 555
T: Değdi Saçlarıma Bahar Gülleri
C: Bekirof
O: Turkey
F: http://compmusic.upf.edu/node/140
N: hicaz--sarki--semai--degdi_saclarima--bekirof
N: makam= hicaz
N: form= sarki
N: usul= semai = 3/4
M: 3/4
L: 1/16
K: C _7/8B ^f ^c 
Q: 1/4=132
%%MIDI tuningsystem comma53
=f4 f2e2 f2d2  | e2=f2 g8  | e4 e2d2 e2c2  | \
w:  ARANAĞME  |   |   | 
d2e2 =f8  | d4 d2c2 d2B2  | 
w:   |   | 
c2d2 e4 d2e2  | c2d2 c2B2 B2A2  | A2B2 c2d2 e2g2  | \
w:   |   |   | 
=f4 f2e2 f2d2  | 
w:  ARANAĞME  | 
e2=f2 g8  | e4 e2d2 e2c2  | d2e2 =f8  | \
w:   |   |   | 
d4 d2c2 d2B2  | c2d2 e4 d2e2  | 
w:   |   | 
c2d2 c2B2 B2A2  | A3B c2d2 e4  | e8 e4  | e12  | \
w:   |   |  Değ di   |  saç  | 
=f2e2 f4 d4  | c12  | d4 e4 =f4  | 
w:  la *  *  rı  |  ma   |  ba har   | 
a4 ^g2=f2 e2d2  | e12  | c2d2 e2c2 B2A2  | \
w:  gül le  |  ri    |  SAZ  | 
e8 e4  | e12  | =f3e f4 d4  | c12  | d4 e4 =f4  | 
w:  Nâ zen  |  de   |  sev *  *  gi  |  lim   |  yâ *  dı  | 
a4 ^g2=f2 e2d2  | e12  | d2e2 f2g2 a4  | \
w:  ma  düş  |  tün    |  SAZ  | 
a8 a2g2  | g8 =f4  | =f3e f4 g4  | e12  | 
w:  Se ve  |  nin   |  bah *  *  tı  |  na   | 
=f4 e4 d4  | c4 d4 e4  | =f12  | =f8 z4  | \
w:  bir  *  gü  |  zel  *  dü  |  şer    |   | 
=f6e2 d4  | e6=f2 g4  | e6d2 c4  | d2e2 =f8  | 
w:  Sen  de  tek   |  sev gi lim   |  ak lı ma   |  düş *  tün    | 
d4 c4 B4  | c6d2 e4  | c6d2 c2B2  | B2A2 A8  | \
w:  Nâ zen de   |  sev gi lim   |  yâ dı ma   |  düş *  tün    | 
=f6e2 d4  | e6=f2 g4  | e6d2 c4  | 
w:  Sen  de  tek   |  sev gi lim   |  ak lı ma   | 
d2e2 =f8  | d4 c4 B4  | c6d2 e4  | c6d2 c2B2  | \
w:  düş *  tün    |  Nâ zen de   |  sev gi lim   |  yâ dı ma   | 
B2A2 A8  | =f4 f2e2 f2d2  | 
w:  düş *  tün    |  ARANAĞME  | 
e2=f2 g8  | e4 e2d2 e2c2  | d2e2 =f8  | \
w:   |   |   | 
d4 d2c2 d2B2  | c2d2 e4 d2e2  | 
w:   |   | 
c2d2 c2B2 B2A2  | A2B2 c2d2 e2g2  | =f4 f2e2 f2d2  | \
w:   |   |  ARANAĞME  | 
e2=f2 g8  | e4 e2d2 e2c2  | 
w:   |   | 
d2e2 =f8  | d4 d2c2 d2B2  | c2d2 e4 d2e2  | \
w:   |   |   | 
c2d2 c2B2 B2A2  | A3B c2d2 e4  | 
w:   |   | 
e8 e4  | e12  | =f2e2 f4 d4  | c12  | d4 e4 =f4  | \
w:  Değ di   |  saç  |  la *  *  rı  |  ma   |  ba har   | 
a4 ^g2=f2 e2d2  | e12  | c2d2 e2c2 B2A2  | 
w:  gül le  |  ri    |  SAZ  | 
e8 e4  | e12  | =f3e f4 d4  | c12  | d4 e4 =f4  | \
w:  Nâ zen  |  de   |  sev *  *  gi  |  lim   |  yâ *  dı  | 
a4 ^g2=f2 e2d2  | e12  | d2e2 f2g2 a4  | 
w:  ma  düş  |  tün    |  SAZ  | 
a8 a2g2  | g8 =f4  | =f3e f4 g4  | e12  | =f4 e4 d4  | \
w:  Se ve  |  nin   |  bah *  *  tı  |  na   |  bir  *  gü  | 
c4 d4 e4  | =f12  | =f8 z4  | =f6e2 d4  | 
w:  zel  *  dü  |  şer    |   |  Sen  de  tek   | 
e6=f2 g4  | e6d2 c4  | d2e2 =f8  | d4 c4 B4  | \
w:  sev gi lim   |  ak lı ma   |  düş *  tün    |  Nâ zen de   | 
c6d2 e4  | c6d2 c2B2  | B2A2 A8  | 
w:  sev gi lim   |  yâ dı ma   |  düş *  tün    | 
=f6e2 d4  | e6=f2 g4  | e6d2 c4  | d2e2 =f8  | \
w:  Sen  de  tek   |  sev gi lim   |  ak lı ma   |  düş *  tün    | 
d4 c4 B4  | c6d2 e4  | c6d2 c2B2  | 
w:  Nâ zen de   |  sev gi lim   |  yâ dı ma   | 
B2A2 A8  | |


